X:13
T:DRUMDB2- Drimen Duff
S:Oswald's Caledonian Pocket Companion, bk, 8, c 1756
Q:1/4=80
L:1/4
M:3/4
K:Am
(A/B/)|{B}c2B|AE(A3/4B/4)|c2B|A2 (G/A/)|B2A|G(D/E/)(G/A/)|\
{A}B3/2 (c/ B/A/)|G2 (A3/4B/4)|c2B|AE(A3/4B/4)|c2B|A2E|\
cc/d/e/g/|{g}a2g|(e/d/e/)g/a/B/|A2|]

